Adwaita++-Light/panel/24/wechat-tray-unread.svg

<svg height="24" width="24" xmlns="http://www.w3.org/2000/svg">
  <path d="m11 4a7 6.5 0 0 0 -7 6.5 7 6.5 0 0 0 2 4.546875v2.953125l1.3203125-1.980469a7 6.5 0 0 0 2.2617187.833985c-.3689268-.710455-.5820312-1.505434-.5820312-2.353516 0-2.439883 1.723041-4.454617 4.048828-5.1933594a1 1 0 0 1 -.048828-.3066406 1 1 0 0 1 1-1 1 1 0 0 1 1 1c1.061383 0 2.066598.2619524 2.943359.7167969a7 6.5 0 0 0 -6.943359-5.7167969zm-3 4a1 1 0 0 1 1 1 1 1 0 0 1 -1 1 1 1 0 0 1 -1-1 1 1 0 0 1 1-1zm7 2a5 4.5 0 0 0 -5 4.5 5 4.5 0 0 0 5 4.5 5 4.5 0 0 0 1.009766-.0957c.052414-1.600575 1.377942-2.9043 2.990234-2.9043.231334 0 .454974.0314.671875.08203a5 4.5 0 0 0 .328125-1.58203 5 4.5 0 0 0 -5-4.5zm-2 2a1 1 0 0 1 1 1 1 1 0 0 1 -1 1 1 1 0 0 1 -1-1 1 1 0 0 1 1-1zm4 0a1 1 0 0 1 1 1 1 1 0 0 1 -1 1 1 1 0 0 1 -1-1 1 1 0 0 1 1-1zm2 6c-.425919 0-.778472.248751-.925781.613281l.925781 1.386719z" fill="#444"/>
  <circle cx="19" cy="19" fill="#4285f4" r="2"/>
</svg>

<svg xmlns="http://www.w3.org/2000/svg" width="24" height="24" version="1.1">
 <defs>
  <style id="current-color-scheme" type="text/css">
   .ColorScheme-Text { color:#444444; } .ColorScheme-Highlight { color:#4285f4; }
  </style>
 </defs>
 <path style="fill:currentColor" class="ColorScheme-Text" d="m 11,4 a 7,6.5 0 0 0 -7,6.5 7,6.5 0 0 0 2,4.546875 L 6,18 7.3203125,16.019531 a 7,6.5 0 0 0 2.2617187,0.833985 C 9.2131044,16.143061 9,15.348082 9,14.5 9,12.060117 10.723041,10.045383 13.048828,9.3066406 A 1,1 0 0 1 13,9 1,1 0 0 1 14,8 1,1 0 0 1 15,9 c 1.061383,0 2.066598,0.2619524 2.943359,0.7167969 A 7,6.5 0 0 0 11,4 Z M 8,8 A 1,1 0 0 1 9,9 1,1 0 0 1 8,10 1,1 0 0 1 7,9 1,1 0 0 1 8,8 Z m 7,2 a 5,4.5 0 0 0 -5,4.5 5,4.5 0 0 0 5,4.5 5,4.5 0 0 0 1.009766,-0.0957 C 16.06218,17.303725 17.387708,16 19,16 c 0.231334,0 0.454974,0.0314 0.671875,0.08203 A 5,4.5 0 0 0 20,14.5 5,4.5 0 0 0 15,10 Z m -2,2 a 1,1 0 0 1 1,1 1,1 0 0 1 -1,1 1,1 0 0 1 -1,-1 1,1 0 0 1 1,-1 z m 4,0 a 1,1 0 0 1 1,1 1,1 0 0 1 -1,1 1,1 0 0 1 -1,-1 1,1 0 0 1 1,-1 z m 2,6 c -0.425919,0 -0.778472,0.248751 -0.925781,0.613281 L 19,20 19,18 Z"/>
 <circle style="fill:currentColor" class="ColorScheme-Highlight" cx="19" cy="19" r="2"/>
</svg>
